app/dist/common/images/national-presto-industries.svg

<svg height="18" viewBox="0 0 18 18" width="18" xmlns="http://www.w3.org/2000/svg"><path d="m0 0h18v18h-18z" fill="#f0f3fa"/><path d="m3 6v5h1v-1.5h3.3c.94 0 1.7-.71 1.7-1.7 0-1-.76-1.8-1.7-1.8zm1 1h3.39c.34 0 .61.34.61.75s-.27.75-.61.75h-3.39zm6 4h-1v-5h4.23c.97 0 1.77.8 1.77 1.8 0 .76-.47 1.36-1.13 1.6l2.13 2.6h-1.58l-2.02-2.5h-2.4zm3.4-4h-3.4v1.5h3.4c.33 0 .6-.34.6-.75s-.27-.75-.6-.75z"/></svg>

<!-- by TradingView --><svg width="18" height="18" viewBox="0 0 18 18" xmlns="http://www.w3.org/2000/svg"><path fill="#F0F3FA" d="M0 0h18v18H0z"/><path d="M3 6v5h1V9.5h3.3c.94 0 1.7-.71 1.7-1.7C9 6.8 8.24 6 7.3 6H3Zm1 1h3.39c.34 0 .61.34.61.75s-.27.75-.61.75H4V7Zm6 4H9V6h4.23C14.2 6 15 6.8 15 7.8c0 .76-.47 1.36-1.13 1.6L16 12h-1.58L12.4 9.5H10V11Zm3.4-4H10v1.5h3.4c.33 0 .6-.34.6-.75S13.73 7 13.4 7Z"/></svg>
